Simply-Orange-Circles/scalable/emblems/emblem-synchronizing.svg

<svg xmlns="http://www.w3.org/2000/svg" width="24" height="24" version="1"><path d="M12 1.502C6.207 1.502 1.502 6.208 1.502 12c0 5.792 4.706 10.498 10.498 10.498 5.793 0 10.498-4.706 10.498-10.498 0-5.793-4.706-10.498-10.498-10.498z" fill="#501616"/><g font-weight="400" font-family="Sans" fill="#fff"><path d="M18.8 6a1.047 1.047 0 0 0-.125.032c-.447.1-.793.542-.782 1v1.687c.005 1.313.005 1.313-1.562 1.313h-1.438c-.523 0-1 .476-1 1a1 1 0 0 0 0 .218v.782h6v-5a.979.979 0 0 0 0-.188v-.812h-.812a1.002 1.002 0 0 0-.28-.032zM3.903 12v5a.979.979 0 0 0 0 .188V18h.812a.99.99 0 0 0 .281.031c.043-.008.084-.018.125-.031.447-.1.793-.542.782-1v-1.688C5.898 14 5.898 14 7.465 14h1.438c.523 0 1-.476 1-1a1 1 0 0 0 0-.219V12z" overflow="visible" style="text-indent:0;text-decoration-line:none;text-transform:none" color="#bebebe"/><path d="M11.898 5c-3.153 0-5.82 2.126-6.688 5h2.094a5.013 5.013 0 0 1 4.594-3 5.013 5.013 0 0 1 4.594 3h2.094c-.869-2.874-3.536-5-6.688-5zM5.21 14c.87 2.874 3.535 5 6.688 5 3.153 0 5.82-2.126 6.688-5h-2.094a5.013 5.013 0 0 1-4.594 3 5.013 5.013 0 0 1-4.594-3z" overflow="visible" style="text-indent:0;text-decoration-line:none;text-transform:none"/></g></svg>

<?xml version="1.0" encoding="UTF-8" standalone="no"?>
<svg
   xmlns:dc="http://purl.org/dc/elements/1.1/"
   xmlns:cc="http://creativecommons.org/ns#"
   xmlns:rdf="http://www.w3.org/1999/02/22-rdf-syntax-ns#"
   xmlns:svg="http://www.w3.org/2000/svg"
   xmlns="http://www.w3.org/2000/svg"
   xmlns:sodipodi="http://sodipodi.sourceforge.net/DTD/sodipodi-0.dtd"
   xmlns:inkscape="http://www.inkscape.org/namespaces/inkscape"
   width="24"
   height="24"
   version="1"
   id="svg10"
   sodipodi:docname="emblem-synchronizing.svg"
   inkscape:version="0.92.4 (5da689c313, 2019-01-14)">
  <metadata
     id="metadata16">
    <rdf:RDF>
      <cc:Work
         rdf:about="">
        <dc:format>image/svg+xml</dc:format>
        <dc:type
           rdf:resource="http://purl.org/dc/dcmitype/StillImage" />
        <dc:title></dc:title>
      </cc:Work>
    </rdf:RDF>
  </metadata>
  <defs
     id="defs14" />
  <sodipodi:namedview
     pagecolor="#ffffff"
     bordercolor="#666666"
     borderopacity="1"
     objecttolerance="10"
     gridtolerance="10"
     guidetolerance="10"
     inkscape:pageopacity="0"
     inkscape:pageshadow="2"
     inkscape:window-width="1160"
     inkscape:window-height="480"
     id="namedview12"
     showgrid="false"
     inkscape:zoom="9.8333333"
     inkscape:cx="1.0677966"
     inkscape:cy="12"
     inkscape:window-x="0"
     inkscape:window-y="25"
     inkscape:window-maximized="0"
     inkscape:current-layer="svg10" />
  <path
     d="M 12,1.502 C 6.207,1.502 1.502,6.208 1.502,12 1.502,17.792 6.208,22.498 12,22.498 17.793,22.498 22.498,17.792 22.498,12 22.498,6.207 17.792,1.502 12,1.502 Z"
     id="path2"
     inkscape:connector-curvature="0"
     style="fill:#ff7f2a" />
  <g
     font-weight="400"
     id="g8"
     style="font-weight:400;font-family:Sans;fill:#ffffff">
    <path
       d="m 18.8,6 a 1.047,1.047 0 0 0 -0.125,0.032 c -0.447,0.1 -0.793,0.542 -0.782,1 v 1.687 c 0.005,1.313 0.005,1.313 -1.562,1.313 h -1.438 c -0.523,0 -1,0.476 -1,1 a 1,1 0 0 0 0,0.218 v 0.782 h 6 v -5 a 0.979,0.979 0 0 0 0,-0.188 V 6.032 H 19.081 A 1.002,1.002 0 0 0 18.801,6 Z M 3.903,12 v 5 a 0.979,0.979 0 0 0 0,0.188 V 18 h 0.812 a 0.99,0.99 0 0 0 0.281,0.031 C 5.039,18.023 5.08,18.013 5.121,18 5.568,17.9 5.914,17.458 5.903,17 V 15.312 C 5.898,14 5.898,14 7.465,14 h 1.438 c 0.523,0 1,-0.476 1,-1 a 1,1 0 0 0 0,-0.219 V 12 Z"
       overflow="visible"
       style="color:#bebebe;text-indent:0;text-decoration:none;text-decoration-line:none;text-transform:none;overflow:visible"
       id="path4"
       inkscape:connector-curvature="0" />
    <path
       d="M 11.898,5 C 8.745,5 6.078,7.126 5.21,10 h 2.094 a 5.013,5.013 0 0 1 4.594,-3 5.013,5.013 0 0 1 4.594,3 h 2.094 C 17.717,7.126 15.05,5 11.898,5 Z M 5.21,14 c 0.87,2.874 3.535,5 6.688,5 3.153,0 5.82,-2.126 6.688,-5 h -2.094 a 5.013,5.013 0 0 1 -4.594,3 5.013,5.013 0 0 1 -4.594,-3 z"
       overflow="visible"
       style="text-indent:0;text-decoration:none;text-decoration-line:none;text-transform:none;overflow:visible"
       id="path6"
       inkscape:connector-curvature="0" />
  </g>
</svg>
